X:4
T:An Rogaire Dubh
T:Black Rogue, The
R:air
S:Sean Ryan and Ciara Ryan on Clare FM
Z:id:hn-air-4
M:3/4
L:1/8
K:G
D2 | G3ABG | A2B2d2 | G2A2B2 | d4g2 | G3ABG | A2B2d2 | A4G2 | G4 :|
(3def | g4ga | g4-ga | g2f2e2 | d2B2d2 | e4g2 | e4g2 | e2d2B2 | d2e2f2 |
g2f2e2 | d2B2d2 | e2f2g2 | G2GABG | A2B2d2 | A4G2 | G4 ||
(3def | g2G2g2 | g2G2g2 | gagfed | BABdBd | e2G2g2 | e2G2e2 | egedB2 | d2e2f2 |
g2G2ge | d2B2d2 | e2f2g2 | G2GABd | g2a2b2 | A4G2 | G4 ||
<end>
<start>
